icons/breaker.svg

<svg width="32" height="32" viewBox="0 0 32 32" fill="none" xmlns="http://www.w3.org/2000/svg">
<g clip-path="url(#clip0_29_97)">
<path d="M3.36627 28.6337C0.910867 26.1783 0 22.1783 0 16C0 9.82167 0.910867 5.82167 3.36627 3.36627C5.82167 0.910867 9.82167 0 16 0C22.1783 0 26.1783 0.910867 28.6337 3.36627C31.0891 5.82167 32 9.82167 32 16C32 22.1783 31.0891 26.1783 28.6337 28.6337C26.1783 31.0891 22.1783 32 16 32C9.82167 32 5.82167 31.0891 3.36627 28.6337Z" fill="#F1F8FF"/>
<path d="M13.7547 21.4067C14.5633 23.8793 15.8662 26.1618 17.5841 28.1154C20.6877 27.7109 23.5172 26.1294 25.4877 23.6977C22.5828 24.4614 19.5398 24.5374 16.6003 23.9196C15.9478 23.7859 15.3417 23.4835 14.8424 23.0426C14.3431 22.6017 13.9681 22.0377 13.7547 21.4067Z" fill="#1269FF"/>
<path d="M16 28.2173C16.5297 28.2174 17.0588 28.1835 17.5841 28.1156C15.8661 26.1619 14.5633 23.8794 13.7547 21.4067C13.5434 20.7776 13.4999 20.1043 13.6287 19.4533C13.7574 18.8024 14.0538 18.1962 14.4886 17.6949C12.222 20.224 10.6679 23.3097 9.98526 26.6365C11.8193 27.6758 13.892 28.2205 16 28.2173Z" fill="#5C9DFF"/>
<path d="M4.1218 18.8704C4.51621 20.497 5.24004 22.0255 6.24856 23.3613C7.25708 24.6971 8.52885 25.8119 9.98526 26.6367C10.6685 23.3055 12.2256 20.216 14.4967 17.6851C14.9374 17.1824 15.5024 16.8043 16.1353 16.5888C16.7681 16.3733 17.4464 16.328 18.1023 16.4573C13.3049 15.452 8.30458 16.3152 4.1218 18.8707V18.8704Z" fill="#9EC6FF"/>
<path d="M18.1023 16.4573C13.3049 15.452 8.30457 16.3151 4.12179 18.8707C3.58421 16.6351 3.68728 14.2934 4.41917 12.1137C5.15106 9.93409 6.48217 8.00471 8.25999 6.54666C11.2144 7.44552 13.9097 9.04095 16.1189 11.1987C18.3282 13.3564 19.9868 16.0132 20.9552 18.9456C20.9735 18.9977 20.9905 19.0504 21.0065 19.1036C20.9897 19.0508 20.9726 18.9982 20.9552 18.9456C20.7367 18.3188 20.3587 17.7598 19.8584 17.3235C19.3582 16.8872 18.753 16.5887 18.1023 16.4573Z" fill="#D1E3FF"/>
<path d="M27.6151 13.7961C27.6151 8.38946 23.1101 3.78279 15.9993 3.78279C13.1767 3.77856 10.4405 4.7558 8.25928 6.54712C11.2411 7.45312 13.9586 9.06892 16.1787 11.2559C18.3988 13.4429 20.0553 16.1359 21.0059 19.1037C21.1177 19.4552 21.2197 19.8292 21.3115 20.1891C22.9885 20.1563 24.5863 19.4694 25.764 18.275C26.9416 17.0807 27.6059 15.4734 27.6151 13.7961Z" fill="white"/>
<path fill-rule="evenodd" clip-rule="evenodd" d="M20.7253 20.3377C20.6359 19.9871 20.4936 19.4773 20.3853 19.1361C20.2004 18.61 19.8821 18.1408 19.4616 17.7746C19.0411 17.4084 18.5327 17.1575 17.9861 17.0467C17.7807 17.0046 17.5713 16.9843 17.3616 16.986C16.9045 16.9854 16.4526 17.0828 16.0364 17.2717C15.6202 17.4606 15.2493 17.7365 14.9487 18.0809C14.422 18.6553 14.1383 19.4114 14.157 20.1905C14.152 20.5392 14.2085 20.886 14.3241 21.215C14.5046 21.7465 14.8211 22.2215 15.242 22.5929C15.663 22.9642 16.1738 23.2189 16.7237 23.3317C19.5716 23.9305 22.5198 23.8569 25.3343 23.1169L25.8293 22.9863L26.0861 23.9142L25.954 24.0767C23.8865 26.628 20.9176 28.2873 17.6613 28.7115C17.1103 28.7819 16.5554 28.8176 16 28.8182C13.7897 28.8099 11.6178 28.239 9.68907 27.1594C8.16105 26.294 6.82678 25.1244 5.76872 23.7229C4.71066 22.3214 3.95131 20.7178 3.5376 19.0111C3.30302 18.0245 3.18362 17.0141 3.1818 16C3.18004 14.1019 3.60063 12.2272 4.41308 10.5118C5.22554 8.79636 6.40949 7.2832 7.87913 6.08199C10.178 4.22084 13.0422 3.19797 16 3.18179C23.3847 3.18179 28.2167 8.00259 28.2167 13.796C28.2075 15.6312 27.481 17.3901 26.1924 18.6969C24.9038 20.0037 23.1553 20.7548 21.3204 20.7897L20.8433 20.8L20.7253 20.3377ZM21.5278 18.7635C20.6151 15.9121 19.0591 13.3088 16.9801 11.1546C14.901 9.00035 12.3546 7.35291 9.53747 6.33953C11.4418 5.04374 13.6968 4.36123 16 4.38353C22.8344 4.38353 27.0149 8.77426 27.0149 13.796C27.0068 15.2362 26.4654 16.6224 25.4953 17.6869C24.5251 18.7513 23.1949 19.4186 21.7616 19.5599C21.6843 19.281 21.5987 18.9867 21.5278 18.7635ZM4.38353 16C4.38163 14.3338 4.73904 12.6869 5.4314 11.1714C6.12376 9.65592 7.13478 8.30756 8.39553 7.21826C13.0114 8.67216 16.8702 11.8833 19.1385 16.1583C18.8446 16.0279 18.5372 15.9306 18.2218 15.8681C13.5619 14.8927 8.70672 15.6249 4.5418 17.9313C4.43455 17.2931 4.38161 16.6471 4.38353 16ZM14.728 16.6574C14.4793 16.8429 14.2508 17.0541 14.0463 17.2874C11.9097 19.6907 10.3805 22.5712 9.5868 25.6874C7.2669 24.1502 5.57465 21.8325 4.81687 19.1547C7.64831 17.4964 10.8739 16.6309 14.1552 16.6491C14.3475 16.6489 14.5384 16.6517 14.728 16.6574ZM16 27.6164C14.1432 27.6305 12.3115 27.1867 10.6671 26.3243C11.119 24.3288 11.9029 22.4235 12.9861 20.6877C13.0216 20.9955 13.0877 21.299 13.1835 21.5936C13.9009 23.7673 14.9849 25.8022 16.3884 27.6104C16.26 27.6145 16.131 27.6165 16 27.6164ZM17.8235 27.4743C16.9722 26.4765 16.2302 25.3905 15.6101 24.2348C15.8895 24.3558 16.1807 24.4474 16.479 24.5081C18.8606 25.0091 21.314 25.0684 23.717 24.6829C22.0607 26.1591 20.0149 27.128 17.8235 27.4743Z" fill="#003DAD"/>
</g>
<defs>
<clipPath id="clip0_29_97">
<rect width="32" height="32" fill="white"/>
</clipPath>
</defs>
</svg>

<svg xmlns="http://www.w3.org/2000/svg" width="32" height="32" fill="none" viewBox="0 0 32 32">
  <g clip-path="url(#a)">
    <path fill="#F1F8FF" d="M3.366 28.634C.911 26.178 0 22.178 0 16S.91 5.822 3.366 3.366C5.822.911 9.822 0 16 0s10.178.91 12.634 3.366C31.089 5.822 32 9.822 32 16s-.91 10.178-3.366 12.634C26.178 31.089 22.178 32 16 32s-10.178-.91-12.634-3.366Z"/>
    <path fill="#1269FF" d="M13.755 21.407a19.195 19.195 0 0 0 3.829 6.708 12.203 12.203 0 0 0 7.904-4.417c-2.905.763-5.948.84-8.888.222a3.812 3.812 0 0 1-2.845-2.513Z"/>
    <path fill="#5C9DFF" d="M16 28.217c.53 0 1.059-.034 1.584-.101a19.195 19.195 0 0 1-3.83-6.71 3.813 3.813 0 0 1 .735-3.711 19.172 19.172 0 0 0-4.504 8.942A12.162 12.162 0 0 0 16 28.217Z"/>
    <path fill="#9EC6FF" d="M4.122 18.87a12.24 12.24 0 0 0 5.863 7.767 19.17 19.17 0 0 1 4.512-8.952 3.814 3.814 0 0 1 3.605-1.228 19.245 19.245 0 0 0-13.98 2.414Z"/>
    <path fill="#D1E3FF" d="M18.102 16.457a19.245 19.245 0 0 0-13.98 2.414A12.238 12.238 0 0 1 8.26 6.547a19.279 19.279 0 0 1 12.695 12.399 3.822 3.822 0 0 0-2.853-2.489Z"/>
    <path fill="#fff" d="M27.615 13.796C27.615 8.39 23.11 3.783 16 3.783a12.167 12.167 0 0 0-7.74 2.764 19.266 19.266 0 0 1 12.747 12.557c.112.351.214.725.305 1.085a6.43 6.43 0 0 0 6.304-6.393Z"/>
    <path fill="#003DAD" fill-rule="evenodd" d="M20.725 20.338c-.09-.35-.231-.86-.34-1.202a3.223 3.223 0 0 0-2.399-2.09 3.196 3.196 0 0 0-3.037 1.034 3.014 3.014 0 0 0-.792 2.11c-.005.35.052.696.167 1.025a3.218 3.218 0 0 0 2.4 2.117c2.848.598 5.796.525 8.61-.215l.495-.13.257.927-.132.163A12.804 12.804 0 0 1 16 28.818a13.02 13.02 0 0 1-6.311-1.659 12.841 12.841 0 0 1-6.151-8.148A13.12 13.12 0 0 1 3.182 16a12.794 12.794 0 0 1 4.697-9.918A13.02 13.02 0 0 1 16 3.182c7.385 0 12.217 4.82 12.217 10.614a7.03 7.03 0 0 1-6.897 6.994l-.477.01-.118-.462Zm.803-1.575A19.53 19.53 0 0 0 9.538 6.34 11.293 11.293 0 0 1 16 4.384c6.834 0 11.015 4.39 11.015 9.412a5.825 5.825 0 0 1-5.253 5.764 24.482 24.482 0 0 0-.234-.796ZM4.383 16a11.588 11.588 0 0 1 4.013-8.782 18.43 18.43 0 0 1 10.742 8.94 4.334 4.334 0 0 0-.916-.29 19.845 19.845 0 0 0-13.68 2.063A11.447 11.447 0 0 1 4.383 16Zm10.345.657a4.424 4.424 0 0 0-.682.63 20.115 20.115 0 0 0-4.46 8.4 11.638 11.638 0 0 1-4.77-6.532 18.277 18.277 0 0 1 9.34-2.506c.191 0 .382.003.572.008ZM16 27.617a11.3 11.3 0 0 1-5.333-1.293 18.267 18.267 0 0 1 2.32-5.636c.034.308.1.611.197.906a20.07 20.07 0 0 0 3.204 6.016 11.33 11.33 0 0 1-.388.006Zm1.823-.143a18.366 18.366 0 0 1-2.213-3.24c.28.122.57.213.869.274 2.382.501 4.835.56 7.238.175a11.572 11.572 0 0 1-5.894 2.791Z" clip-rule="evenodd"/>
  </g>
  <defs>
    <clipPath id="a">
      <path fill="#fff" d="M0 0h32v32H0z"/>
    </clipPath>
  </defs>
</svg>
